X:87
T:Fluff Don't Fly
R:reel
C: 1999, 2010 L.E. McCullough 
M:4/4
L:1/8
K:D
z6 DE|:~F3A BAFA|Bcde fedf|gfeg fedf|~e3f edBA|
~F3A BAFA|Bcde fedf|gbge fedf|1gfec d2DE:|2 gfec d2cd|] 
|:eAef gfeg|fdfg agfa|bagb a~f3|gfed eAcd|
eAef gfeg|~f3a baga|b~g3 a~f3|1 gfec d2cd:|2gfec d2DE|]
 

